flash-vue-admin/src/icons/svg/nested.svg

<?xml version="1.0" standalone="no"?><!DOCTYPE svg PUBLIC "-//W3C//DTD SVG 1.1//EN" "http://www.w3.org/Graphics/SVG/1.1/DTD/svg11.dtd"><svg t="1529559567446" class="icon" style="" viewBox="0 0 1167 1024" version="1.1" xmlns="http://www.w3.org/2000/svg" p-id="1767" xmlns:xlink="http://www.w3.org/1999/xlink" width="227.9296875" height="200"><defs><style type="text/css"></style></defs><path d="M0.015952 74.459413A2.286 2.286 1440 1 0 145.85218 74.459413 2.286 2.286 1440 1 0 0.015952 74.459413zM291.720312 1.525347 1166.801488 1.525347 1166.801488 147.361574 291.720312 147.361574zM291.720312 366.163773A2.286 2.286 1440 1 0 437.55654 366.163773 2.286 2.286 1440 1 0 291.720312 366.163773zM583.424672 293.229707 1166.801488 293.229707 1166.801488 439.065934 583.424672 439.065934zM291.720312 949.540588A2.286 2.286 1440 1 0 437.55654 949.540588 2.286 2.286 1440 1 0 291.720312 949.540588zM583.424672 876.638427 1166.801488 876.638427 1166.801488 1022.474654 583.424672 1022.474654zM583.424672 657.836228A2.286 2.286 1440 1 0 729.2609 657.836228 2.286 2.286 1440 1 0 583.424672 657.836228zM875.129032 584.934067 1166.801488 584.934067 1166.801488 730.770294 875.129032 730.770294z" p-id="1768"></path></svg>

<svg class="icon" viewBox="0 0 1167 1024" xmlns="http://www.w3.org/2000/svg" width="227.93" height="200"><defs><style/></defs><path d="M.016 74.46a2.286 2.286 1440 1 0 145.836 0 2.286 2.286 1440 1 0-145.836 0zM291.72 1.524h875.081v145.837h-875.08zm0 364.639a2.286 2.286 1440 1 0 145.837 0 2.286 2.286 1440 1 0-145.837 0zm291.705-72.934H1166.8v145.836H583.425zM291.72 949.54a2.286 2.286 1440 1 0 145.837 0 2.286 2.286 1440 1 0-145.837 0zm291.705-72.902H1166.8v145.837H583.425zm0-218.802a2.286 2.286 1440 1 0 145.836 0 2.286 2.286 1440 1 0-145.836 0zm291.704-72.902h291.672V730.77H875.13z"/></svg>
